images/mVIXY.svg

<svg height="250" viewBox="0 0 250 250" width="250" xmlns="http://www.w3.org/2000/svg" xmlns:xlink="http://www.w3.org/1999/xlink"><symbol id="a" overflow="visible"><path d="m29.078125 0h-10.421875l-18.171875-49.140625h10.75l10.109375 31.5625c.625 2.054687 1.484375 5.148437 2.578125 9.28125l.734375-3 1.78125-6.28125 10.078125-31.5625h10.640625zm0 0"/></symbol><symbol id="b" overflow="visible"><path d="m4.78125 0v-49.140625h10.28125v49.140625zm0 0"/></symbol><symbol id="c" overflow="visible"><path d="m36.203125 0-12.34375-19.5625-12.34375 19.5625h-10.890625l17.015625-25.84375-15.578125-23.296875h10.875l10.921875 17.375 10.90625-17.375h10.8125l-14.921875 23.296875 16.359375 25.84375zm0 0"/></symbol><symbol id="d" overflow="visible"><path d="m28.984375-20.15625v20.15625h-10.25v-20.15625l-17.515625-28.984375h10.78125l11.78125 20.78125 11.9375-20.78125h10.765625zm0 0"/></symbol><path d="m250 125c0 69.035156-55.964844 125-125 125s-125-55.964844-125-125 55.964844-125 125-125 125 55.964844 125 125zm0 0" fill="#fff" fill-rule="evenodd"/><g fill="#121a2f"><use x="46.929688" xlink:href="#a" y="151.787388"/><use x="89.793806" xlink:href="#b" y="151.787388"/><use x="105.87221" xlink:href="#c" y="151.787388"/><use x="148.736328" xlink:href="#d" y="151.787388"/></g></svg>

<svg xmlns="http://www.w3.org/2000/svg" xmlns:xlink="http://www.w3.org/1999/xlink" width="250" height="250"><symbol id="a" overflow="visible"><path d="M29.078 0H18.656L.484-49.14h10.75l10.11 31.562c.625 2.055 1.484 5.148 2.578 9.281l.734-3 1.782-6.281 10.078-31.563h10.64zm0 0"/></symbol><symbol id="b" overflow="visible"><path d="M4.781 0v-49.14h10.282V0zm0 0"/></symbol><symbol id="c" overflow="visible"><path d="M36.203 0 23.86-19.563 11.516 0H.625l17.016-25.844L2.063-49.14h10.874L23.86-31.766 34.766-49.14h10.812L30.656-25.844 47.016 0zm0 0"/></symbol><symbol id="d" overflow="visible"><path d="M28.984-20.156V0h-10.25v-20.156L1.22-49.141H12l11.781 20.782L35.72-49.141h10.765zm0 0"/></symbol><path fill="#fff" fill-rule="evenodd" d="M250 125c0 69.035-55.965 125-125 125S0 194.035 0 125 55.965 0 125 0s125 55.965 125 125zm0 0"/><g fill="#121a2f"><use xlink:href="#a" x="46.93" y="151.787"/><use xlink:href="#b" x="89.794" y="151.787"/><use xlink:href="#c" x="105.872" y="151.787"/><use xlink:href="#d" x="148.736" y="151.787"/></g></svg>
